include/LD/assets/icons/action/share_thanks.svg

<?xml version="1.0"?><svg xmlns="http://www.w3.org/2000/svg" width="52" height="52" viewBox="0 0 52 52"><path fill="#fff" d="m45.2 14h-7c2-3.1 1.8-7.3-0.6-9.8-1.4-1.4-3.2-2.2-5.1-2.2-2.1 0-4.2 1-5.7 2.6-0.3 0.3-0.6 0.6-0.8 1-0.2-0.4-0.5-0.7-0.8-1-1.5-1.7-3.6-2.6-5.7-2.6-1.9 0-3.7 0.8-5 2.2-2.5 2.6-2.6 6.7-0.6 9.8h-7c-2.7 0-4.9 2.2-4.9 4.8v3.2c0 0.9 0.7 1.6 1.6 1.6h44.8c0.9 0 1.6-0.7 1.6-1.6v-3.2c0-2.6-2.2-4.8-4.8-4.8z m-21.6 0c-1.7 0-4.1-0.6-5.4-2.1-1.2-1.3-1.4-3.4-0.2-4.4 0.5-0.5 1-0.6 1.5-0.6 0.8 0 1.6 0.4 2.2 1 1.4 1.5 1.9 4.1 1.9 5.7v0.4z m10.2-2.1c-1.4 1.4-3.8 2.1-5.4 2.1v-0.5c0-1.6 0.6-4.2 1.9-5.7 0.6-0.6 1.4-1 2.2-1 0.4 0 1 0.1 1.6 0.6 1 1.2 0.9 3.2-0.3 4.5z m11.4 16.5h-16.8v21.6h13.8c2.6 0 4.6-2.1 4.6-4.6v-15.4c0-0.9-0.7-1.6-1.6-1.6z m-40 1.6v15.2c0 2.6 2.2 4.8 4.8 4.8h13.6v-21.6h-16.8c-0.9 0-1.6 0.7-1.6 1.6z"></path></svg>

<svg xmlns="http://www.w3.org/2000/svg" x="0px" y="0px"
	 width="52px" height="52px" viewBox="0 0 52 52" enable-background="new 0 0 52 52" xml:space="preserve">
<g>
	<g>
		<path fill="#FFFFFF" d="M45.2,14h-7c2-3.1,1.8-7.3-0.6-9.8C36.2,2.8,34.4,2,32.5,2c-2.1,0-4.2,1-5.7,2.6c-0.3,0.3-0.6,0.6-0.8,1
			c-0.2-0.4-0.5-0.7-0.8-1C23.7,2.9,21.6,2,19.5,2c-1.9,0-3.7,0.8-5,2.2c-2.5,2.6-2.6,6.7-0.6,9.8h-7C4.2,14,2,16.2,2,18.8V22
			c0,0.9,0.7,1.6,1.6,1.6h44.8c0.9,0,1.6-0.7,1.6-1.6v-3.2C50,16.2,47.8,14,45.2,14z M23.6,14L23.6,14c-1.7,0-4.1-0.6-5.4-2.1
			c-1.2-1.3-1.4-3.4-0.2-4.4C18.5,7,19,6.9,19.5,6.9c0.8,0,1.6,0.4,2.2,1c1.4,1.5,1.9,4.1,1.9,5.7l0,0C23.6,13.7,23.6,13.8,23.6,14
			L23.6,14z M33.8,11.9c-1.4,1.4-3.8,2.1-5.4,2.1c0-0.2,0-0.3,0-0.5l0,0c0-1.6,0.6-4.2,1.9-5.7c0.6-0.6,1.4-1,2.2-1
			c0.4,0,1,0.1,1.6,0.6C35.1,8.6,35,10.6,33.8,11.9z"/>
	</g>
	<g>
		<path fill="#FFFFFF" d="M45.2,28.4H28.4V50h13.8c2.6,0,4.6-2.1,4.6-4.6V30C46.8,29.1,46.1,28.4,45.2,28.4z"/>
	</g>
	<g>
		<path fill="#FFFFFF" d="M5.2,30v15.2c0,2.6,2.2,4.8,4.8,4.8h13.6V28.4H6.8C5.9,28.4,5.2,29.1,5.2,30z"/>
	</g>
</g>
</svg>
